X:2
T:The Banks of the Lossie
T:Seconds
C:arr. Scott Wallace and friends
R:Retreat March
M:9/8
L:1/8
K:D
[| {gf}g | a2 {GdG}a {fg}f3 {ag}a2 g | {fg}f>{g}ef {Gdc}d2 {e}A3 | {g}A>Bd {gfg}f3 {ag}a2 f | a>fd {gef}e3 {A}e2 {gf}g |
a2 {GdG}a {fg}f3 {ag}a2 g | {fg}f>{g}ef {Gdc}d3 {e}A3 | {g}A>Bd {gfg}f3 {ag}a2 A | {g}A>{d}ce {Gdc}d3 {gdG}d2 {gf}g |
{a}d6 {g}c2 B | {g}d2 A {g}G3 d3 | {g}f2 A {ag}a3 e2 d | {g}A6 {e}(G3 | G3) {g}(d3 d2) B |
{g}d2 A {g}G3 d3 | {g}f2 A {ag}a3 f2 d | a2 e {g}f3 {e}f2 |]
[| f | {g}A>Bd {gdG}d3 {e}A2 d | {g}B<{d}A{d}B {Gdc}d3 {e}A2 f | {gf}g>fe {gfg}f3 {ag}a2 f | a>fd {gef}e3 {A}e2 f |
{gf}g>fe {gfg}f3 {ag}a2 f | a>fd {gBd}B3 {e}G2 {d}B | {g}A>Bd {gfg}f3 {ag}a2 A | {g}A>{d}ce {Gdc}d3 {gdG}d2 f |
{g}f2 g {a}f3 {g}e2 f | {g}f<d{e}G {g}A3 d2 a | d6 (A3 | A6) G3 |
{g}e>dG {g}B6 | {A3} (d3 d2) g | {a}f2 A {ag}a3 f2 d | {ag}a2 e {g}f6 |]


